icons/inbox.svg

<svg width="24" height="24" viewBox="0 0 24 24" fill="none" xmlns="http://www.w3.org/2000/svg">
<path fill-rule="evenodd" clip-rule="evenodd" d="M4.10368 5.1108L4.10368 5.1108L4.10391 5.1099C4.10427 5.10893 4.10556 5.1063 4.10857 5.10329C4.11157 5.10028 4.11417 5.09899 4.1151 5.09864L4.11593 5.09842C4.11612 5.09839 4.11749 5.09818 4.12054 5.09843C5.93254 5.2445 9.45904 5.5 12 5.5C14.541 5.5 18.0675 5.2445 19.8795 5.09843C19.8825 5.09818 19.8839 5.09839 19.8841 5.09842L19.8849 5.09864C19.8859 5.09899 19.8885 5.10028 19.8915 5.10329C19.8945 5.10631 19.8958 5.10894 19.8961 5.1099L19.8964 5.1108C19.8964 5.11101 19.8966 5.1124 19.8963 5.11547C19.7596 6.72598 19.5337 9.68307 19.5034 12H17.563C16.5661 12 15.6342 12.4953 15.0765 13.3216L14.0159 14.8928C13.83 15.1682 13.5194 15.3333 13.187 15.3333H12H10.813C10.4807 15.3333 10.1701 15.1682 9.98416 14.8928L8.92358 13.3216C8.36581 12.4953 7.43399 12 6.43703 12H4.49662C4.46632 9.68306 4.24047 6.72598 4.10371 5.11547C4.10345 5.11242 4.10364 5.11103 4.10368 5.1108ZM4.47335 14C4.4034 16.1682 4.21201 18.6199 4.09477 19.9894C4.09455 19.9919 4.09469 19.9932 4.09473 19.9935L4.09494 19.9944C4.09507 19.9947 4.09531 19.9953 4.09569 19.9959C4.09614 19.9967 4.09679 19.9977 4.09768 19.9986L4.09909 20L4.09985 20H4.11031H4.12081H4.13136H4.14194H4.15256H4.16323H4.17394H4.18468H4.19547H4.20629H4.21716H4.22806H4.23901H4.24999H4.26101H4.27208H4.28318H4.29432H4.3055H4.31672H4.32797H4.33927H4.3506H4.36197H4.37338H4.38483H4.39631H4.40783H4.41939H4.43099H4.44262H4.4543H4.466H4.47775H4.48953H4.50135H4.51321H4.5251H4.53702H4.54899H4.56099H4.57302H4.5851H4.5972H4.60935H4.62152H4.63374H4.64599H4.65827H4.67059H4.68294H4.69533H4.70775H4.7202H4.7327H4.74522H4.75778H4.77037H4.783H4.79566H4.80835H4.82108H4.83384H4.84663H4.85945H4.87231H4.8852H4.89813H4.91108H4.92407H4.93709H4.95015H4.96323H4.97635H4.9895H5.00268H5.01589H5.02913H5.0424H5.05571H5.06904H5.08241H5.09581H5.10924H5.12269H5.13618H5.1497H5.16325H5.17683H5.19044H5.20408H5.21774H5.23144H5.24517H5.25892H5.27271H5.28652H5.30036H5.31423H5.32813H5.34206H5.35602H5.37H5.38402H5.39806H5.41212H5.42622H5.44034H5.45449H5.46867H5.48288H5.49711H5.51137H5.52565H5.53997H5.55431H5.56867H5.58306H5.59748H5.61192H5.62639H5.64089H5.65541H5.66996H5.68453H5.69913H5.71375H5.7284H5.74307H5.75777H5.77249H5.78723H5.802H5.8168H5.83162H5.84646H5.86133H5.87622H5.89113H5.90607H5.92103H5.93601H5.95102H5.96605H5.9811H5.99618H6.01128H6.0264H6.04154H6.05671H6.07189H6.0871H6.10234H6.11759H6.13286H6.14816H6.16348H6.17882H6.19417H6.20956H6.22496H6.24038H6.25582H6.27129H6.28677H6.30227H6.3178H6.33334H6.3489H6.36449H6.38009H6.39571H6.41135H6.42702H6.4427H6.45839H6.47411H6.48985H6.5056H6.52138H6.53717H6.55298H6.56881H6.58465H6.60052H6.6164H6.6323H6.64821H6.66415H6.6801H6.69606H6.71205H6.72805H6.74407H6.7601H6.77615H6.79222H6.80831H6.8244H6.84052H6.85665H6.8728H6.88896H6.90514H6.92133H6.93754H6.95376H6.97H6.98626H7.00252H7.01881H7.0351H7.05141H7.06774H7.08408H7.10043H7.1168H7.13318H7.14957H7.16598H7.1824H7.19883H7.21528H7.23174H7.24821H7.26469H7.28119H7.2977H7.31422H7.33076H7.3473H7.36386H7.38043H7.39701H7.41361H7.43021H7.44683H7.46345H7.48009H7.49674H7.5134H7.53007H7.54675H7.56344H7.58014H7.59685H7.61357H7.6303H7.64704H7.66379H7.68055H7.69732H7.7141H7.73088H7.74768H7.76448H7.7813H7.79812H7.81495H7.83179H7.84864H7.86549H7.88236H7.89923H7.9161H7.93299H7.94988H7.96679H7.98369H8.00061H8.01753H8.03446H8.0514H8.06834H8.08529H8.10224H8.1192H8.13617H8.15315H8.17012H8.18711H8.2041H8.2211H8.2381H8.2551H8.27211H8.28913H8.30615H8.32318H8.34021H8.35724H8.37428H8.39132H8.40837H8.42542H8.44248H8.45954H8.4766H8.49366H8.51073H8.5278H8.54488H8.56196H8.57904H8.59612H8.61321H8.63029H8.64738H8.66448H8.68157H8.69867H8.71577H8.73287H8.74997H8.76707H8.78417H8.80128H8.81839H8.83549H8.8526H8.86971H8.88682H8.90393H8.92104H8.93815H8.95526H8.97237H8.98948H9.00658H9.02369H9.0408H9.05791H9.07501H9.09212H9.10922H9.12633H9.14343H9.16053H9.17763H9.19472H9.21182H9.22891H9.246H9.26309H9.28017H9.29726H9.31434H9.33141H9.34849H9.36556H9.38263H9.39969H9.41676H9.43382H9.45087H9.46792H9.48497H9.50201H9.51905H9.53608H9.55311H9.57014H9.58716H9.60418H9.62119H9.63819H9.6552H9.67219H9.68918H9.70617H9.72314H9.74012H9.75709H9.77405H9.791H9.80795H9.82489H9.84183H9.85876H9.87568H9.89259H9.9095H9.9264H9.9433H9.96018H9.97706H9.99393H10.0108H10.0276H10.0445H10.0613H10.0782H10.095H10.1118H10.1286H10.1454H10.1622H10.179H10.1957H10.2125H10.2292H10.246H10.2627H10.2794H10.2961H10.3128H10.3295H10.3462H10.3629H10.3795H10.3962H10.4128H10.4295H10.4461H10.4627H10.4793H10.4958H10.5124H10.529H10.5455H10.5621H10.5786H10.5951H10.6116H10.6281H10.6445H10.661H10.6774H10.6939H10.7103H10.7267H10.7431H10.7595H10.7758H10.7922H10.8085H10.8249H10.8412H10.8575H10.8737H10.89H10.9063H10.9225H10.9387H10.9549H10.9711H10.9873H11.0035H11.0196H11.0357H11.0519H11.068H11.084H11.1001H11.1162H11.1322H11.1482H11.1642H11.1802H11.1962H11.2121H11.2281H11.244H11.2599H11.2757H11.2916H11.3075H11.3233H11.3391H11.3549H11.3707H11.3864H11.4021H11.4179H11.4336H11.4492H11.4649H11.4805H11.4962H11.5118H11.5273H11.5429H11.5585H11.574H11.5895H11.605H11.6204H11.6359H11.6513H11.6667H11.6821H11.6974H11.7128H11.7281H11.7434H11.7587H11.7739H11.7891H11.8043H11.8195H11.8347H11.8498H11.865H11.8801H11.8951H11.9102H11.9252H11.9402H11.9552H11.9702H11.9851H12H12.0149H12.0299H12.0448H12.0598H12.0748H12.0898H12.1049H12.12H12.1351H12.1502H12.1653H12.1805H12.1957H12.2109H12.2261H12.2414H12.2567H12.2719H12.2873H12.3026H12.318H12.3333H12.3487H12.3642H12.3796H12.3951H12.4106H12.4261H12.4416H12.4571H12.4727H12.4883H12.5039H12.5195H12.5351H12.5508H12.5665H12.5822H12.5979H12.6136H12.6294H12.6452H12.6609H12.6768H12.6926H12.7084H12.7243H12.7402H12.7561H12.772H12.7879H12.8039H12.8198H12.8358H12.8518H12.8678H12.8839H12.8999H12.916H12.9321H12.9482H12.9643H12.9804H12.9966H13.0127H13.0289H13.0451H13.0613H13.0775H13.0938H13.11H13.1263H13.1426H13.1589H13.1752H13.1915H13.2078H13.2242H13.2406H13.2569H13.2733H13.2897H13.3062H13.3226H13.339H13.3555H13.372H13.3885H13.405H13.4215H13.438H13.4545H13.4711H13.4876H13.5042H13.5208H13.5374H13.554H13.5706H13.5872H13.6038H13.6205H13.6372H13.6538H13.6705H13.6872H13.7039H13.7206H13.7373H13.7541H13.7708H13.7875H13.8043H13.8211H13.8378H13.8546H13.8714H13.8882H13.905H13.9219H13.9387H13.9555H13.9724H13.9892H14.0061H14.023H14.0399H14.0567H14.0736H14.0905H14.1074H14.1244H14.1413H14.1582H14.1751H14.1921H14.209H14.226H14.243H14.2599H14.2769H14.2939H14.3109H14.3278H14.3448H14.3618H14.3788H14.3959H14.4129H14.4299H14.4469H14.464H14.481H14.498H14.5151H14.5321H14.5492H14.5662H14.5833H14.6003H14.6174H14.6345H14.6515H14.6686H14.6857H14.7028H14.7199H14.7369H14.754H14.7711H14.7882H14.8053H14.8224H14.8395H14.8566H14.8737H14.8908H14.9079H14.925H14.9421H14.9592H14.9763H14.9935H15.0106H15.0277H15.0448H15.0619H15.079H15.0961H15.1132H15.1303H15.1474H15.1645H15.1817H15.1988H15.2159H15.233H15.2501H15.2672H15.2843H15.3014H15.3185H15.3356H15.3527H15.3697H15.3868H15.4039H15.421H15.4381H15.4552H15.4722H15.4893H15.5064H15.5234H15.5405H15.5576H15.5746H15.5917H15.6087H15.6258H15.6428H15.6598H15.6769H15.6939H15.7109H15.7279H15.7449H15.7619H15.7789H15.7959H15.8129H15.8299H15.8469H15.8639H15.8808H15.8978H15.9147H15.9317H15.9486H15.9656H15.9825H15.9994H16.0163H16.0333H16.0502H16.067H16.0839H16.1008H16.1177H16.1345H16.1514H16.1682H16.1851H16.2019H16.2187H16.2356H16.2524H16.2692H16.2859H16.3027H16.3195H16.3362H16.353H16.3697H16.3865H16.4032H16.4199H16.4366H16.4533H16.47H16.4866H16.5033H16.5199H16.5366H16.5532H16.5698H16.5864H16.603H16.6196H16.6362H16.6527H16.6693H16.6858H16.7023H16.7188H16.7353H16.7518H16.7683H16.7848H16.8012H16.8176H16.8341H16.8505H16.8669H16.8832H16.8996H16.916H16.9323H16.9486H16.9649H16.9812H16.9975H17.0138H17.03H17.0463H17.0625H17.0787H17.0949H17.1111H17.1272H17.1434H17.1595H17.1756H17.1917H17.2078H17.2239H17.2399H17.256H17.272H17.288H17.304H17.3199H17.3359H17.3518H17.3677H17.3836H17.3995H17.4154H17.4312H17.4471H17.4629H17.4787H17.4944H17.5102H17.5259H17.5416H17.5573H17.573H17.5887H17.6043H17.6199H17.6355H17.6511H17.6667H17.6822H17.6978H17.7133H17.7288H17.7442H17.7597H17.7751H17.7905H17.8059H17.8212H17.8366H17.8519H17.8672H17.8824H17.8977H17.9129H17.9281H17.9433H17.9585H17.9736H17.9888H18.0039H18.0189H18.034H18.049H18.064H18.079H18.094H18.1089H18.1238H18.1387H18.1536H18.1684H18.1832H18.198H18.2128H18.2276H18.2423H18.257H18.2716H18.2863H18.3009H18.3155H18.3301H18.3446H18.3591H18.3736H18.3881H18.4026H18.417H18.4314H18.4457H18.4601H18.4744H18.4887H18.5029H18.5172H18.5314H18.5455H18.5597H18.5738H18.5879H18.602H18.616H18.63H18.644H18.658H18.6719H18.6858H18.6997H18.7135H18.7273H18.7411H18.7549H18.7686H18.7823H18.796H18.8096H18.8232H18.8368H18.8503H18.8639H18.8773H18.8908H18.9042H18.9176H18.931H18.9443H18.9576H18.9709H18.9841H18.9974H19.0105H19.0237H19.0368H19.0499H19.0629H19.076H19.089H19.1019H19.1148H19.1277H19.1406H19.1534H19.1662H19.179H19.1917H19.2044H19.217H19.2297H19.2423H19.2548H19.2673H19.2798H19.2923H19.3047H19.3171H19.3295H19.3418H19.3541H19.3663H19.3785H19.3907H19.4028H19.4149H19.427H19.439H19.451H19.463H19.4749H19.4868H19.4987H19.5105H19.5223H19.534H19.5457H19.5574H19.569H19.5806H19.5922H19.6037H19.6152H19.6267H19.6381H19.6494H19.6608H19.6721H19.6833H19.6945H19.7057H19.7169H19.728H19.739H19.75H19.761H19.772H19.7829H19.7937H19.8046H19.8154H19.8261H19.8368H19.8475H19.8581H19.8687H19.8792H19.8897H19.9002L19.901 20L19.9024 19.9986C19.9032 19.9977 19.9038 19.9969 19.9042 19.9961C19.9047 19.9954 19.905 19.9948 19.9051 19.9944L19.9053 19.9935C19.9053 19.9932 19.9055 19.9919 19.9053 19.9894C19.788 18.6199 19.5966 16.1682 19.5267 14H17.563C17.2307 14 16.9201 14.1651 16.7342 14.4405L15.6736 16.0118C15.1158 16.8381 14.184 17.3333 13.187 17.3333H12H10.813C9.81605 17.3333 8.88423 16.8381 8.32646 16.0118L7.26588 14.4405C7.07996 14.1651 6.76935 14 6.43703 14H4.47335ZM4.28125 3.1049C3.04031 3.00486 2.00557 4.04452 2.11088 5.2847C2.25789 7.01592 2.50002 10.2198 2.50002 12.5C2.50002 14.8272 2.24784 18.1159 2.10205 19.8188C2.00226 20.9845 2.91745 22 4.09985 22H4.11031H4.12081H4.13136H4.14194H4.15256H4.16323H4.17394H4.18468H4.19547H4.20629H4.21716H4.22806H4.23901H4.24999H4.26101H4.27208H4.28318H4.29432H4.3055H4.31672H4.32797H4.33927H4.3506H4.36197H4.37338H4.38483H4.39631H4.40783H4.41939H4.43099H4.44262H4.4543H4.466H4.47775H4.48953H4.50135H4.51321H4.5251H4.53702H4.54899H4.56099H4.57302H4.5851H4.5972H4.60935H4.62152H4.63374H4.64599H4.65827H4.67059H4.68294H4.69533H4.70775H4.7202H4.7327H4.74522H4.75778H4.77037H4.783H4.79566H4.80835H4.82108H4.83384H4.84663H4.85945H4.87231H4.8852H4.89813H4.91108H4.92407H4.93709H4.95015H4.96323H4.97635H4.9895H5.00268H5.01589H5.02913H5.0424H5.05571H5.06904H5.08241H5.09581H5.10924H5.12269H5.13618H5.1497H5.16325H5.17683H5.19044H5.20408H5.21774H5.23144H5.24517H5.25892H5.27271H5.28652H5.30036H5.31423H5.32813H5.34206H5.35602H5.37H5.38402H5.39806H5.41212H5.42622H5.44034H5.45449H5.46867H5.48288H5.49711H5.51137H5.52565H5.53997H5.55431H5.56867H5.58306H5.59748H5.61192H5.62639H5.64089H5.65541H5.66996H5.68453H5.69913H5.71375H5.7284H5.74307H5.75777H5.77249H5.78723H5.802H5.8168H5.83162H5.84646H5.86133H5.87622H5.89113H5.90607H5.92103H5.93601H5.95102H5.96605H5.9811H5.99618H6.01128H6.0264H6.04154H6.05671H6.07189H6.0871H6.10234H6.11759H6.13286H6.14816H6.16348H6.17882H6.19417H6.20956H6.22496H6.24038H6.25582H6.27129H6.28677H6.30227H6.3178H6.33334H6.3489H6.36449H6.38009H6.39571H6.41135H6.42702H6.4427H6.45839H6.47411H6.48985H6.5056H6.52138H6.53717H6.55298H6.56881H6.58465H6.60052H6.6164H6.6323H6.64821H6.66415H6.6801H6.69606H6.71205H6.72805H6.74407H6.7601H6.77615H6.79222H6.80831H6.8244H6.84052H6.85665H6.8728H6.88896H6.90514H6.92133H6.93754H6.95376H6.97H6.98626H7.00252H7.01881H7.0351H7.05141H7.06774H7.08408H7.10043H7.1168H7.13318H7.14957H7.16598H7.1824H7.19883H7.21528H7.23174H7.24821H7.26469H7.28119H7.2977H7.31422H7.33076H7.3473H7.36386H7.38043H7.39701H7.41361H7.43021H7.44683H7.46345H7.48009H7.49674H7.5134H7.53007H7.54675H7.56344H7.58014H7.59685H7.61357H7.6303H7.64704H7.66379H7.68055H7.69732H7.7141H7.73088H7.74768H7.76448H7.7813H7.79812H7.81495H7.83179H7.84864H7.86549H7.88236H7.89923H7.9161H7.93299H7.94988H7.96679H7.98369H8.00061H8.01753H8.03446H8.0514H8.06834H8.08529H8.10224H8.1192H8.13617H8.15315H8.17012H8.18711H8.2041H8.2211H8.2381H8.2551H8.27211H8.28913H8.30615H8.32318H8.34021H8.35724H8.37428H8.39132H8.40837H8.42542H8.44248H8.45954H8.4766H8.49366H8.51073H8.5278H8.54488H8.56196H8.57904H8.59612H8.61321H8.63029H8.64738H8.66448H8.68157H8.69867H8.71577H8.73287H8.74997H8.76707H8.78417H8.80128H8.81839H8.83549H8.8526H8.86971H8.88682H8.90393H8.92104H8.93815H8.95526H8.97237H8.98948H9.00658H9.02369H9.0408H9.05791H9.07501H9.09212H9.10922H9.12633H9.14343H9.16053H9.17763H9.19472H9.21182H9.22891H9.246H9.26309H9.28017H9.29726H9.31434H9.33141H9.34849H9.36556H9.38263H9.39969H9.41676H9.43382H9.45087H9.46792H9.48497H9.50201H9.51905H9.53608H9.55311H9.57014H9.58716H9.60418H9.62119H9.63819H9.6552H9.67219H9.68918H9.70617H9.72314H9.74012H9.75709H9.77405H9.791H9.80795H9.82489H9.84183H9.85876H9.87568H9.89259H9.9095H9.9264H9.9433H9.96018H9.97706H9.99393H10.0108H10.0276H10.0445H10.0613H10.0782H10.095H10.1118H10.1286H10.1454H10.1622H10.179H10.1957H10.2125H10.2292H10.246H10.2627H10.2794H10.2961H10.3128H10.3295H10.3462H10.3629H10.3795H10.3962H10.4128H10.4295H10.4461H10.4627H10.4793H10.4958H10.5124H10.529H10.5455H10.5621H10.5786H10.5951H10.6116H10.6281H10.6445H10.661H10.6774H10.6939H10.7103H10.7267H10.7431H10.7595H10.7758H10.7922H10.8085H10.8249H10.8412H10.8575H10.8737H10.89H10.9063H10.9225H10.9387H10.9549H10.9711H10.9873H11.0035H11.0196H11.0357H11.0519H11.068H11.084H11.1001H11.1162H11.1322H11.1482H11.1642H11.1802H11.1962H11.2121H11.2281H11.244H11.2599H11.2757H11.2916H11.3075H11.3233H11.3391H11.3549H11.3707H11.3864H11.4021H11.4179H11.4336H11.4492H11.4649H11.4805H11.4962H11.5118H11.5273H11.5429H11.5585H11.574H11.5895H11.605H11.6204H11.6359H11.6513H11.6667H11.6821H11.6974H11.7128H11.7281H11.7434H11.7587H11.7739H11.7891H11.8043H11.8195H11.8347H11.8498H11.865H11.8801H11.8951H11.9102H11.9252H11.9402H11.9552H11.9702H11.9851H12H12.0149H12.0299H12.0448H12.0598H12.0748H12.0898H12.1049H12.12H12.1351H12.1502H12.1653H12.1805H12.1957H12.2109H12.2261H12.2414H12.2567H12.2719H12.2873H12.3026H12.318H12.3333H12.3487H12.3642H12.3796H12.3951H12.4106H12.4261H12.4416H12.4571H12.4727H12.4883H12.5039H12.5195H12.5351H12.5508H12.5665H12.5822H12.5979H12.6136H12.6294H12.6452H12.6609H12.6768H12.6926H12.7084H12.7243H12.7402H12.7561H12.772H12.7879H12.8039H12.8198H12.8358H12.8518H12.8678H12.8839H12.8999H12.916H12.9321H12.9482H12.9643H12.9804H12.9966H13.0127H13.0289H13.0451H13.0613H13.0775H13.0938H13.11H13.1263H13.1426H13.1589H13.1752H13.1915H13.2078H13.2242H13.2406H13.2569H13.2733H13.2897H13.3062H13.3226H13.339H13.3555H13.372H13.3885H13.405H13.4215H13.438H13.4545H13.4711H13.4876H13.5042H13.5208H13.5374H13.554H13.5706H13.5872H13.6038H13.6205H13.6372H13.6538H13.6705H13.6872H13.7039H13.7206H13.7373H13.7541H13.7708H13.7875H13.8043H13.8211H13.8378H13.8546H13.8714H13.8882H13.905H13.9219H13.9387H13.9555H13.9724H13.9892H14.0061H14.023H14.0399H14.0567H14.0736H14.0905H14.1074H14.1244H14.1413H14.1582H14.1751H14.1921H14.209H14.226H14.243H14.2599H14.2769H14.2939H14.3109H14.3278H14.3448H14.3618H14.3788H14.3959H14.4129H14.4299H14.4469H14.464H14.481H14.498H14.5151H14.5321H14.5492H14.5662H14.5833H14.6003H14.6174H14.6345H14.6515H14.6686H14.6857H14.7028H14.7199H14.7369H14.754H14.7711H14.7882H14.8053H14.8224H14.8395H14.8566H14.8737H14.8908H14.9079H14.925H14.9421H14.9592H14.9763H14.9935H15.0106H15.0277H15.0448H15.0619H15.079H15.0961H15.1132H15.1303H15.1474H15.1645H15.1817H15.1988H15.2159H15.233H15.2501H15.2672H15.2843H15.3014H15.3185H15.3356H15.3527H15.3697H15.3868H15.4039H15.421H15.4381H15.4552H15.4722H15.4893H15.5064H15.5234H15.5405H15.5576H15.5746H15.5917H15.6087H15.6258H15.6428H15.6598H15.6769H15.6939H15.7109H15.7279H15.7449H15.7619H15.7789H15.7959H15.8129H15.8299H15.8469H15.8639H15.8808H15.8978H15.9147H15.9317H15.9486H15.9656H15.9825H15.9994H16.0163H16.0333H16.0502H16.067H16.0839H16.1008H16.1177H16.1345H16.1514H16.1682H16.1851H16.2019H16.2187H16.2356H16.2524H16.2692H16.2859H16.3027H16.3195H16.3362H16.353H16.3697H16.3865H16.4032H16.4199H16.4366H16.4533H16.47H16.4866H16.5033H16.5199H16.5366H16.5532H16.5698H16.5864H16.603H16.6196H16.6362H16.6527H16.6693H16.6858H16.7023H16.7188H16.7353H16.7518H16.7683H16.7848H16.8012H16.8176H16.8341H16.8505H16.8669H16.8832H16.8996H16.916H16.9323H16.9486H16.9649H16.9812H16.9975H17.0138H17.03H17.0463H17.0625H17.0787H17.0949H17.1111H17.1272H17.1434H17.1595H17.1756H17.1917H17.2078H17.2239H17.2399H17.256H17.272H17.288H17.304H17.3199H17.3359H17.3518H17.3677H17.3836H17.3995H17.4154H17.4312H17.4471H17.4629H17.4787H17.4944H17.5102H17.5259H17.5416H17.5573H17.573H17.5887H17.6043H17.6199H17.6355H17.6511H17.6667H17.6822H17.6978H17.7133H17.7288H17.7442H17.7597H17.7751H17.7905H17.8059H17.8212H17.8366H17.8519H17.8672H17.8824H17.8977H17.9129H17.9281H17.9433H17.9585H17.9736H17.9888H18.0039H18.0189H18.034H18.049H18.064H18.079H18.094H18.1089H18.1238H18.1387H18.1536H18.1684H18.1832H18.198H18.2128H18.2276H18.2423H18.257H18.2716H18.2863H18.3009H18.3155H18.3301H18.3446H18.3591H18.3736H18.3881H18.4026H18.417H18.4314H18.4457H18.4601H18.4744H18.4887H18.5029H18.5172H18.5314H18.5455H18.5597H18.5738H18.5879H18.602H18.616H18.63H18.644H18.658H18.6719H18.6858H18.6997H18.7135H18.7273H18.7411H18.7549H18.7686H18.7823H18.796H18.8096H18.8232H18.8368H18.8503H18.8639H18.8773H18.8908H18.9042H18.9176H18.931H18.9443H18.9576H18.9709H18.9841H18.9974H19.0105H19.0237H19.0368H19.0499H19.0629H19.076H19.089H19.1019H19.1148H19.1277H19.1406H19.1534H19.1662H19.179H19.1917H19.2044H19.217H19.2297H19.2423H19.2548H19.2673H19.2798H19.2923H19.3047H19.3171H19.3295H19.3418H19.3541H19.3663H19.3785H19.3907H19.4028H19.4149H19.427H19.439H19.451H19.463H19.4749H19.4868H19.4987H19.5105H19.5223H19.534H19.5457H19.5574H19.569H19.5806H19.5922H19.6037H19.6152H19.6267H19.6381H19.6494H19.6608H19.6721H19.6833H19.6945H19.7057H19.7169H19.728H19.739H19.75H19.761H19.772H19.7829H19.7937H19.8046H19.8154H19.8261H19.8368H19.8475H19.8581H19.8687H19.8792H19.8897H19.9002C21.0826 22 21.9978 20.9845 21.898 19.8188C21.7522 18.1159 21.5 14.8272 21.5 12.5C21.5 10.2198 21.7421 7.01592 21.8892 5.2847C21.9945 4.04452 20.9597 3.00486 19.7188 3.1049C17.9042 3.25117 14.4511 3.5 12 3.5C9.54898 3.5 6.09585 3.25117 4.28125 3.1049Z" fill="#333333"/>
</svg>

<svg xmlns="http://www.w3.org/2000/svg" width="24" height="24" fill="none" viewBox="0 0 24 24">
  <path fill="#333" fill-rule="evenodd" d="M4.104 5.11a.02.02 0 01.005-.007.02.02 0 01.006-.004h.006C5.933 5.244 9.459 5.5 12 5.5c2.541 0 6.067-.255 7.88-.402h.004a.02.02 0 01.008.005.02.02 0 01.004.007v.005c-.136 1.611-.362 4.568-.393 6.885h-1.94a3 3 0 00-2.486 1.322l-1.061 1.57a1 1 0 01-.829.441h-2.374a1 1 0 01-.829-.44l-1.06-1.571A3 3 0 006.437 12h-1.94c-.03-2.317-.257-5.274-.393-6.885a.02.02 0 010-.004zm.37 8.89c-.07 2.168-.262 4.62-.38 5.99a.02.02 0 000 .004l.002.002s0 .002.002.003l.001.001h15.803l.001-.001.002-.003.001-.002v-.005c-.117-1.37-.308-3.82-.378-5.989h-1.964a1 1 0 00-.829.44l-1.06 1.572a3 3 0 01-2.487 1.321h-2.374a3 3 0 01-2.487-1.321l-1.06-1.572a1 1 0 00-.829-.44H4.473zM4.28 3.105c-1.24-.1-2.275.94-2.17 2.18.147 1.73.389 4.935.389 7.215 0 2.327-.252 5.616-.398 7.319A2.008 2.008 0 004.1 22h15.8a2.008 2.008 0 001.998-2.181c-.146-1.703-.398-4.992-.398-7.319 0-2.28.242-5.484.39-7.215a2.017 2.017 0 00-2.171-2.18C17.904 3.25 14.45 3.5 12 3.5c-2.451 0-5.904-.249-7.719-.395z"/>
</svg>
